src/lib/packages/icons/src/assets/filled/folder-user.svg

<svg width="24" height="24" viewBox="0 0 24 24" fill="none" xmlns="http://www.w3.org/2000/svg">
<path d="M18 7H13L10 4H6C4 4 3 5 3 7V17C3 19 4 20 6 20H18C20 20 21 19 21 17V10C21 8 20 7 18 7ZM12 8.85001C13.186 8.85001 14.1499 9.814 14.1499 11C14.1499 12.186 13.185 13.15 12 13.15C10.815 13.15 9.8501 12.186 9.8501 11C9.8501 9.814 10.814 8.85001 12 8.85001ZM15.5 17.35C15.5 17.626 15.276 17.85 15 17.85H9C8.724 17.85 8.5 17.626 8.5 17.35V17.047C8.5 15.707 9.48091 14.35 11.3579 14.35H12.6411C14.5181 14.35 15.499 15.707 15.499 17.047V17.35H15.5Z" fill="currentColor"/>
</svg>

<svg xmlns="http://www.w3.org/2000/svg" width="24" height="24" fill="none"><path fill="currentColor" d="M18 7h-5l-3-3H6C4 4 3 5 3 7v10c0 2 1 3 3 3h12c2 0 3-1 3-3v-7c0-2-1-3-3-3Zm-6 1.85c1.186 0 2.15.964 2.15 2.15s-.965 2.15-2.15 2.15A2.152 2.152 0 0 1 9.85 11c0-1.186.964-2.15 2.15-2.15Zm3.5 8.5a.5.5 0 0 1-.5.5H9a.5.5 0 0 1-.5-.5v-.303c0-1.34.98-2.697 2.858-2.697h1.283c1.877 0 2.858 1.357 2.858 2.697v.303h.001Z"/></svg>
